!!!COM: Schubert, Franz
!!!CNT: Deutscher
!!!TXO: Deutsch
!!!OTL: "In der Ferne"
!!!OPR: Schwanengesang
!!!LYR: Rellstab, Ludwig
!!!ONM: No. 6
!!!ODT: 1828/
!!NB: Vocal melody only encoded.
**kern	**silbe
*clefG2	*
*k[f#c#]	*
*M3/4	*
*MM[langsam]	*
=8	=8
{4f#	{We-
4f#	-he
4f#	dem
=9	=9
4.f#	Flie-
8g	-hen-
4f#	-den
=10	=10
4.f#	Welt
8f#	hin-
4b	-aus
=11	=11
4.a#	Zie-
8f#	-hen-
4f#}	-den!}
=13	=13
{4e	{Frem-
4f#	-de
4g	Durch-
=14	=14
4.f#	-mess-
8f#	-en-
4f#	-den,
=15	=15
4e	Hei-
4f#	-math
4g	Ver-
=16	=16
4.f#	-gess-
8f#	-en-
4f#}	-den,}
=17	=17
{4.b	{Mut-
8b	-ter-
4b	-haus
=18	=18
4.b-	Hass-
8b-	-en-
4b-	-den,
=19	=19
4.b-	Freun-
8ccn	-de
4dd	Ver-
=20	=20
4.a	-lass-
8a	-en-
4a}	-den}
=21	=21
{4bn	{fol-
4cc#	-get
4dd	kein
=22	=22
4.dd	Se-
8cc#	-gen,
4cc#	ach,
=23	=23
4cc#	auf
8dd	ih-
8cc#	|
8b	-ren
8a	|
=24	=24
4.a	We-
8dd	-gen
4dd}	nach,}
=25	=25
{4e	{auf
4f#	ih-
4g	-ren
=26	=26
[2.f#	We-
=27	=27
2.f_	|
=28	=28
4.f#]	|
8d	-gen
[4B	nach!
=29	=29
2.B];}	|}
=37	=37
{4f#	{Her-
4f#	-ze,
4f#	das
=38	=38
4.f#	seh-
(aq	-nen-
8g)	|
4f#	-de,
=39	=39
4f#	Au-
4b	-ge,
4dd	das
=40	=40
4.cc#	thra2-
8a#	-nen-
4f#}	-de,}
=42	=42
{4ee	{Sehn-
4dd	-sucht,
4cc#	nie
=43	=43
4.dd	en-
8cc#	-den-
4b	-de,
=44	=44
4ee	heim-
8ee	-wa2rts
8dd	|
8dd	sich
8cc#	|
=45	=45
4.dd	wend-
8cc#	-en-
4b}	-de,}
=46	=46
{4b	{Bus-
4b	-en,
4cc#	der
=47	=47
4.dd	wal-
8ee	-len-
4dd	-de,
=48	=48
4dd	Kla-
4dd	-ge,
4ee	ver-
=49	=49
4.ffn	-hal-
8dd	-len-
4a}	-de,}
=50	=50
{4bn	{A-
4cc#	-bend-
4dd	-stern,
=51	=51
4.ee	blin-
8dd	-ken-
4cc#	-der,
=52	=52
4cc#	hoff-
8dd	-nung-
8cc#	|
8dd	-slos
8ee	|
=53	=53
4.ff#	sin-
8ee	-ken-
4dd}	-der,}
=54	=54
{4.cc#	{hoff-
8b	-nung-
8a	-slos
8g	|
=55	=55
[2.f#	sin-
=56	=56
2.f#_	|
=57	=57
4.f#]	|
8d	-ken-
[4B	-der!
=58	=58
2.B];}	|}
=66	=66
*k[f#c#g#d#a#]	*
{4f#	{Lu2f-
4f#	-te,
4f#	ihr
=67	=67
4.f#	san-
8g#	-seln-
4f#	-den,
=68	=68
4f#	Wel-
4b	-len,
4dd#	sanft
=69	=69
4.cc#	kra2u-
8a#	-seln-
4f#}	-den,}
=70	=70
{4ee	{Son-
4dd#	-nen-
4cc#	-strahl,
=71	=71
4.dd#	ei-
8cc#	-len-
4b	-der,
=72	=72
4ee	nir-
8ee	-gend
8dd#	|
8dd#	ver-
8cc#	|
=73	=73
4.dd#	-wei-
8cc#	-len-
4b}	-der:}
=74	=74
{4b	{die
4b	mir
4cc#	mit
=75	=75
4.ddn	Schmer-
8ee	-ze,
4ddn}	ach!}
=77	=77
{4b	{dies
4b	treu-
4cc#	-e
=78	=78
4.ddn	Her-
8ee	-ze
4ddn}	brach,}
=80	=80
{4b	{gru2sst
4cc#	von
4ddn	dem
=81	=81
4.ee	Flie-
8ddn	-hen-
4cc#	-den,
=82	=82
4cc#	Welt
4ddn	hin-
4ee	-aus
=83	=83
4.ff#	Zie-
8ee	-hen-
4ddn}	-den,}
=84	=84
{4.cc#	{Welt
8b	hin-
8an	-aus
8gn	|
=85	=85
[2.f#	Zie-
=86	=86
2.f#_	|
=87	=87
4.f#]	|
8d#	-hen-
4B}	-den!}
=89	=89
{4b	{Lu2f-
4cc#	-te,
4dd#	ihr
=90	=90
4.ee	sa2u-
8dd#	-seln-
4cc#}	-den,}
=92	=92
{4b	{Wel-
4cc#	-len,
4dd#	sanft
=93	=93
(ff#q	kra2u-
4.ee)	|
8dd#	-seln-
4cc#}	-den,}
=95	=95
{4b	{Son-
4dd#	-nen-
4ff#	-strahl,
=96	=96
4.ff#	ei-
8ee	-len-
4ee	-der,
=97	=97
4ee	nir-
4dd#	-gend
4cc#	ver-
=98	=98
([2.b	-wei-
=99	=99
4b]	|
4cc#)	|
4a	-len-
=100	=100
2.a}	-der:}
=102	=102
{4cc#	{Die
4dd#	mir
4ee	mit
=103	=103
4.ee	Schmer-
8dd#	-ze,
4dd#	ach!
=104	=104
4cc#	dies
4dd#	treu-
4ee	-e
=105	=105
4.ee	Her-
8dd#	-ze
4dd#}	brach,}
=106	=106
{4b#	{gru2sst
4cc#	von
4ff#	dem
=107	=107
4.ff#	Flie-
8ee	-hen-
4ee	-den.
=108	=108
4ee	Welt
4dd#	hin-
4cc#	-aus
=109	=109
([2.b	Zie-
=110	=110
4b]	|
4cc#)	|
4a	-hen-
=111	=111
2b}	-den,}
4r	.
=112	=112
{4ccn	{Welt
8ddn	hin-
8ee	|
8ff#	-aus
8ggn	|
=113	=113
[2.ff#	Zie-
=114	=114
2.ff#_	|
=115	=115
4.ff#]	|
8ddn	-hen-
[4b	-den!
=116	=116
2.b]}	|}
*-	*-
